icons/1_Primary/hosting.de.svg

<svg width="1024" height="1024" fill="none" xmlns="http://www.w3.org/2000/svg"><g clip-path="url(#a)"><path d="M512 1024c282.77 0 512-229.23 512-512S794.77 0 512 0 0 229.23 0 512s229.23 512 512 512Z" fill="#98DC9A"/><path d="M539.19 738.63C433 752.2 311.71 668.88 296 546c-8.63-67.58 1.59-134.51 44.56-177.34 42.97-42.83 56 43.67 55.67 82.79-.33 39.12 9.16 126.57 16.45 155.72 19.58 78.31 67.05 131.61 126.5 131.42l.01.04ZM320 253.64c71.83-21.89 165.48 21.36 190.8 104.45 13.93 45.7 14.74 93.15-9.9 127.81s-43.84-23.59-48.23-50.65c-4.39-27.06-21.25-86.39-29.67-105.69-22.8-51.81-61.89-83.05-103-75.92Zm164.76 31.73C591 271.8 712.29 355.12 728 478c8.63 67.58-1.6 134.51-44.56 177.34-42.96 42.83-56-43.67-55.67-82.79.33-39.12-9.15-126.57-16.44-155.72-19.58-78.31-67.06-131.61-126.5-131.42l-.07-.04ZM704 770.36C632.17 792.25 538.52 749 513.2 665.91c-13.93-45.7-14.75-93.15 9.9-127.81s43.84 23.59 48.23 50.64c4.39 27.05 21.24 86.4 29.71 105.7C623.8 746.26 662.9 777.5 704 770.36Z" fill="#fff"/></g><defs><clipPath id="a"><path fill="#fff" d="M0 0h1024v1024H0z"/></clipPath></defs></svg>

<svg width="1024" height="1024" viewBox="0 0 1024 1024" fill="none" xmlns="http://www.w3.org/2000/svg">
<g clip-path="url(#clip0_2_2427)">
<path d="M512 1024C794.77 1024 1024 794.77 1024 512C1024 229.23 794.77 0 512 0C229.23 0 0 229.23 0 512C0 794.77 229.23 1024 512 1024Z" fill="#98DC9A"/>
<path d="M539.19 738.63C433 752.2 311.71 668.88 296 546C287.37 478.42 297.59 411.49 340.56 368.66C383.53 325.83 396.56 412.33 396.23 451.45C395.9 490.57 405.39 578.02 412.68 607.17C432.26 685.48 479.73 738.78 539.18 738.59L539.19 738.63ZM320 253.64C391.83 231.75 485.48 275 510.8 358.09C524.73 403.79 525.54 451.24 500.9 485.9C476.26 520.56 457.06 462.31 452.67 435.25C448.28 408.19 431.42 348.86 423 329.56C400.2 277.75 361.11 246.51 320 253.64ZM484.76 285.37C591 271.8 712.29 355.12 728 478C736.63 545.58 726.4 612.51 683.44 655.34C640.48 698.17 627.44 611.67 627.77 572.55C628.1 533.43 618.62 445.98 611.33 416.83C591.75 338.52 544.27 285.22 484.83 285.41L484.76 285.37ZM704 770.36C632.17 792.25 538.52 749 513.2 665.91C499.27 620.21 498.45 572.76 523.1 538.1C547.75 503.44 566.94 561.69 571.33 588.74C575.72 615.79 592.57 675.14 601.04 694.44C623.8 746.26 662.9 777.5 704 770.36Z" fill="white"/>
</g>
<defs>
<clipPath id="clip0_2_2427">
<rect width="1024" height="1024" fill="white"/>
</clipPath>
</defs>
</svg>
